client/resources/iconsets/breeze/src/svg/16x16/icon_forward.svg

<svg xmlns="http://www.w3.org/2000/svg" width="16" height="16" viewBox="0 0 16 16">
 <path style="fill:#6d6d70"
       d="M 8.4707031 2 C 8.2060752 2.0155569 7.9995696 2.2349155 8 2.5 L 8 6 L 2 6 C 1.446 6 1 6.446 1 7 L 1 9 C 1 9.554 1.446 10 2 10 L 8 10 L 8 13.5 C 7.9995853 13.935287 8.516973 14.163227 8.8378906 13.869141 L 14.837891 8.3691406 C 15.054863 8.1708712 15.054863 7.8291288 14.837891 7.6308594 L 8.8378906 2.1308594 C 8.7382357 2.0393652 8.6057613 1.9921535 8.4707031 2 z "
       />
</svg>

<svg xmlns="http://www.w3.org/2000/svg" width="16" height="16"><path d="M8.471 2A.5.5 0 0 0 8 2.5V6H2a1 1 0 0 0-1 1v2a1 1 0 0 0 1 1h6v3.5a.5.5 0 0 0 .838.369l6-5.5a.5.5 0 0 0 0-.738l-6-5.5A.5.5 0 0 0 8.471 2z" fill="#6d6d70"/></svg>
